X: 3685
T:Port Gan Ainm
R:jig
S:Kevin Finucane
M:6/8
L:1/8
K:D
faf dfd|ABA FDF|~G3 EGF|Eed cBA|!
f/g/af dfd|ABA FDF|~G3 Ecd|edc d3:|!
|:ABA FED|FGF FED|EFE A,CE|EAB cBA|!
F2A AFD|GEE EDC|CEC A,GE|GEC D3:|!
|:AFA dcd|ede fdB|gfe ~d3|Bcd edB|!
AFA dcd|ede gfe|dcB Ace|cAc d3:|!
